X:1
T:Haec dicit Dominus - Webbe
T:#
%%score { 1 | 2 } 3 4 { ( 5 8 ) | ( 6 7 ) }
L:1/8
Q:1/4=80
M:4/4
K:D
V:1 treble nm="Soprano" snm="S"
V:2 treble 
V:3 treble nm="Tenor" snm="T"
V:4 treble nm="Bass" snm="B"
V:5 treble nm="Organ"
V:8 treble 
V:6 bass 
V:7 bass 
V:1
"^Sancta Maria, succurre miseris""^Samuel Webbe\n(1740-1816)""^larghetto" F4 G4 | A4 B3 A | %2
w: San- cta,|san- cta Ma-|
 (A4 TG4) | F8 |"^andantino" F2 FF E2 E2 | z AAG F>E E2 | z d2 c (d A2) G | (F2 TE>)D D4 | z8 | %9
w: ri\- *|a!|san- cta Ma- ri- a!|suc- cur- re mi- se- ris,|ju- va pu\- * sil-|la\- * ni- mes;||
 z8 | d2 cB e>c A2 | z4 z2 z A | A>^G GA (cB)Ac | c>B Bc (ed) c2 | c2 B2 (A3/2B/4c/4) B2 | %15
w: |re- fo- ve fle- bi- les,|in-|ter- ve- ni pro cle\- * ro, in-|ter- ve- ni pro- cle\- * ro,|in- ter- ce\- * * de,|
 e2 d2 c2 B2 | c2 c2 B2 Bc | (ed)cB A2 A2 | z8 | z8 | A>B =c2 A2 c2 | z =cBA AG z2 | G>A B2 G2 B2 | %23
w: in- ter- ce- de|pro de- vo- to fe-|mi\- * ne- o se- xu:|||sen- ti- ant o- mnes|ju- va- men tu- um,|sen- ti- ant o- mnes|
 z BAG GF z2 | d>A A2 G2 F2 | d2 A>B (AG)FF | F2 G2 A>B A2 || (dc) (BA) (GF)GA | %28
w: ju- va- men tu- um,|sen- ti- ant o- mnes|tu- um ju- va\- * men, qui-|cun- que ce- le- brant|tu\- * am * san\- * ctam com-|
 BAGF TF2[Q:1/4=50] !fermata!E2 |"^Chorus"[Q:1/4=72] A2 G2 F2 F2 | G2 GE (CE)AG | %31
w: me- mo- ra- ti- o- nem.|Sen- tiant o- mnes|tu- um ju- va\- * men, qui-|
[Q:1/4=72][Q:1/4=72][Q:1/4=72][Q:1/4=72] F2 A2 d>d d2 | d2 d2 c2 c[Q:1/4=71]c | %33
w: cun- que ce- le- brant|tu- am san- ctam com-|
[Q:1/4=70] d2[Q:1/4=69] d2[Q:1/4=68] B2[Q:1/4=66] B2 |[Q:1/4=65] A4[Q:1/4=64] !fermata!A4 |] %35
w: me- mo- ra- ti-|o- nem.|
V:2
 D4 E4 | F4 G3 F | (F4 TE4) | D8 | D2 DD D2 CC | D2 D2 D>C C2 | D2 G2 F2 D2 | (D2 TC>)D D4 | z8 | %9
w: San- cta,|san- cta Ma-|ri\- *|a!|san- cta Ma- ri- a! suc-|cur- re mi- se- ris,|ju- va pu- sil-|la\- * ni- mes;||
 z8 | z8 | d2 cB e>c A2 | z4 z2 z A | A>^G GA (cB) A2 | A2 ^G2 A2 G2 | E2 (^G3/2A/4B/4) A2 G2 | %16
w: ||o- ra pro po- pu- lo,|in-|ter- ve- ni pro- cle\- * ro,|in- ter- ce- de,|in- ter\- * * ce- de|
 A2 A2 A2 ^GA | (cB)A^G A2 A2 | z8 | z8 | F>G A2 F2 A2 | z AGF FE z2 | E>F G2 E2 G2 | z GFE ED z2 | %24
w: pro de- vo- to fe-|mi\- * ne- o se- xu:|||sen- ti- ant o- mnes|ju- va- men tu- um,|sen- ti- ant o- mnes|ju- va- men tu- um,|
 F>F F2 E2 D2 | F2 F>G (FE)DD | D2 E2 F>G F2 || (BA) (GF) (ED)EF | GFED TD2 !fermata!C2 | %29
w: sen- ti- ant o- mnes|tu- um ju- va\- * men, qui-|cun- que ce- le- brant|tu\- * am * san\- * ctam com-|me- mo- ra- ti- o- nem.|
 C2 C2 D2 D2 | D2 B,B, C2 CC | D2 F2 F>F F2 | E2 E2 E2 EE | F2 F2 G2 G2 | (G2 FE) !fermata!F4 |] %35
w: Sen- tiant o- mnes|tu- um ju- va- men, qui-|cun- que ce- le- brant|tu- am san- ctam com-|me- mo- ra- ti-|o\- * * nem.|
V:3
[K:C] z8 | z8 | z8 | z8 | z8 | z8 |[M:4/4] z8 | z8 | z8 | z8 | z8 |[M:4/4] z8 | z8 | z8 | z8 | %15
w: |||||||||||||||
[M:4/4] z8 | z8 | z8 | z8 | z8 |[M:4/4] z8 | z8 | z8 | z8 |[M:4/4] z8 | z8 | z8 || %27
w: ||||||||||||
[K:D][M:4/4][K:treble-8] z8 | z8 | A2 A2 A2 A2 | B2 BB A2 AA | A2 A2 B>B B2 | B2 B2 A2 AA | %33
w: ||Sen- tiant o- mnes|tu- um ju- va- men, qui-|cun- que ce- le- brant|tu- am san- ctam com-|
 A2 d2 d2 d2 | d4 !fermata!d4 |] %35
w: me- mo- ra- ti-|o- nem.|
V:4
[K:C] z8 | z8 | z8 | z8 | z8 | z8 |[M:4/4] z8 | z8 | z8 | z8 | z8 |[M:4/4] z8 | z8 | z8 | z8 | %15
w: |||||||||||||||
[M:4/4] z8 | z8 | z8 | z8 | z8 |[M:4/4] z8 | z8 | z8 | z8 |[M:4/4] z8 | z8 | z8 || %27
w: ||||||||||||
[K:D][M:4/4][K:bass] z8 | z8 | A,,2 A,,2 D,2 =C,2 | (B,,D,)G,G, A,2 A,,A,, | D,2 D,2 B,,>B,, B,,2 | %32
w: ||Sen- tiant o- mnes|tu\- * um ju- va- men, qui-|cun- que ce- le- brant|
 G,,2 G,2 A,2 A,,A,, | D,2 D,2 G,2 G,2 | D,4 !fermata!D,4 |] %35
w: tu- am san- ctam com-|me- mo- ra- ti-|o- nem.|
V:5
!p! [DF]4 [EG]4 | ([FA]4 [GB]3) [FA] | ([FA]4 [EG]4) | [DF]8 | [DF]2 [DF][DF] [DE]2 E2 | %5
 z AAG [DF]>[CE] [CE]2 | z d2 c (d A2) G | [DF]2 ([CE]>D) D4 | z d'2 c' d' a2 g | x8 | %10
 (d2 cB) (e>c A2) | (d2 cB) (e>c A2) | [CA]>[B,^G][B,G][CA] [Ec][DB][CA][Ac] | %13
 ([Ac]>[^GB])[GB][Ac] ([ce][Bd] [Ac]2) | [Ac]2 [^GB]2 (A3/2B/4c/4) B2 | [EAe]2 [E^Gd]2 c2 B2 | %16
 [EAc]2 [FAc]2- [FAB]2 [^GB][Ac] | [ce][Bd][EAc][D^GB] [CA]2 [CA]2 |!mp! a6 ^ga | %19
 ([ec'][db][ca][B^g]) [ca]4 |!p! ([FA]>[GB] [A=c]2) ([FA]2 [Ac]2) | %21
 z ([A=c][GB][FA]) ([FA][EG]) z2 | ([EG]>[FA] [GB]2) ([EG]2 [GB]2) | %23
 z ([GB][FA][EG]) ([EG][DF]) z2 |!p! ([Fd]>[FA] [FA]2) ([EG]2 [DF]2) | %25
 [Fd]2 ([FA]>[GB]) ([FA][EG][DF][DF]) | ([DF]2 [EG]2) ([FA]>[GB] [FA]2) || %27
 ([Bd][Ac][GB][FA]) ([EG][DF][EG][FA]) | ([GB][FA][EG][DF]) (T[DF]2 !fermata![CE]2) | %29
!f! [CEA]2 [CEG]2 [DF]2 [DF]2 | [B,DG]2 GE CEAG | [DF]2 [DFA]2 [FBd]>[FBd] [FBd]2 | %32
 [EBd]2 [EBd]2 [EAc]2 cc | [FAd]2 [FAd]2 [DGB]2 [D-G-B]2 | G2 FE !fermata![DFA]4 |] %35
V:6
 D4 C4 | =C4 B,2 z2 | x8 | x8 | x4 x2 CC |[I:staff -1] D2 D2[I:staff +1] x4 | F,2 E,2 D,2 B,2 | %7
 A,2 A,,2 D,2 D,,2 | F,2 E,2 D,2 B,2 | A,2 A,,2 D,2 D,,2 | z (F,E,D,) C,A,CA, | z F,E,D, C,A, C2 | %12
 E,2 z2 z/ E,/F,/^G,/ A,A,, | E,2 z2 z/ E,/F,/^G,/ A,A,, | A,E,DE, CE,^G,E, | CE,B,E, A,E,^G,E, | %16
 (A,^G,F,E,) D,B,,E,A, | D,2 E,E,, A,,2 A,2 | (A,^G,F,E,) D,B,,E,A, | E,2 E,,2({A,,} A,=G,F,E,) | %20
 ^D,4 D,4 | (^D,4 E,)E,,E,=D, | C,4 C,4 | (C,4 D,)D,,D,C, |!f! D,2 z2 z/!p! (A,,/B,,/C,/ D,)D,, | %25
 D,2 z2 z/ A,,/B,,/C,/ D,D,, | D,8- || D,8 | G,,4 !fermata!A,,4 | %29
 [A,,A,]2 [A,,A,]2 [D,A,]2 [=C,A,]2 | B,,D, [G,B,]2 A,2 [A,,A,]2 | %31
 [D,A,]2 [D,A,]2 [B,,B,]2 [B,,B,]2 | [G,,G,]2 [G,,G,]2 [A,,A,]2 [A,,A,]2 | %33
 [D,,D,]2 [D,,D,]2 [G,,G,]2 [G,,G,]2 | [D,,D,]4 !fermata![D,,A,,D,]4 |] %35
V:7
 D,8- | D,4 G,4 | A,4 [A,,A,]4 | [D,A,]8 | DCB,A, G,2 A,2 | F,2 B,2 A,A,,A,G, | x8 | x8 | x8 | x8 | %10
 x8 | x8 | x8 | x8 | x8 | x8 | x8 | x8 | x8 | x8 | x6 x2 | x6 x2 | x6 x2 | x6 x2 | x8 | x8 | x8 || %27
 x8 | x8 | x8 | x8 | x8 | x8 | x8 | x8 |] %35
V:8
 x8 | x8 | x8 | x8 | x8 | x8 | x8 | x8 | d2 g2 f2 d2- | [df]2 T[ce]2 d4 | z AA^G [EA]2 E2 | %11
 z AA^G [EA]2 E2 | x8 | x8 | x4 E4 | x4 E4 | x6 E2 | F2 x2 x4 | c4 B3 c | x8 | %20
 x4[I:staff +1] [A,=C]>[G,B,] [F,A,]2 |[I:staff -1] x8 | x4[I:staff +1] [G,B,]>[F,A,] [E,G,]2 | %23
[I:staff -1] x6 x2 | x8 | x8 | x8 || x8 | x8 | x8 | x4 C2 [CE]2 | x8 | x8 | x8 | [DA]4 x2 x2 |] %35

